assets/svg/logo_mini_green.svg

<svg fill="none" height="44" viewBox="0 0 44 44" width="44" xmlns="http://www.w3.org/2000/svg"><path clip-rule="evenodd" d="m21.853 3.63082c-10.1796 0-18.45795 8.29228-18.45795 18.48678 0 10.1928 8.27835 18.4842 18.45795 18.4842 10.178 0 18.4589-8.2914 18.4589-18.4842 0-10.1945-8.2809-18.48678-18.4589-18.48678zm0 40.36918c-12.04954 0-21.85312207-9.8171-21.85312207-21.8824 0-12.0679 9.80358207-21.884934 21.85312207-21.884934 12.0488 0 21.854 9.817034 21.854 21.884934 0 12.0653-9.8052 21.8824-21.854 21.8824zm.0009-33.4883c-6.4008 0-11.5882 5.197-11.5882 11.6058 0 6.4071 5.1874 11.6016 11.5882 11.6016 6.3991 0 11.5873-5.1945 11.5873-11.6016 0-6.4088-5.1882-11.6058-11.5873-11.6058zm0-4.88066 3.8253 3.77723 5.2583-1.10507 1.1779 5.2504 5.0218 1.9148-1.842 5.0524 3.1898 4.3315-4.279 3.2543.3456 5.368-5.3564.4231-2.6077 4.7037-4.7336-2.546-4.7337 2.546-2.6076-4.7037-5.3564-.4231.3456-5.368-4.27819-3.2543 3.189-4.3315-1.84293-5.0524 5.02092-1.9148 1.1796-5.2504 5.2576 1.10507zm-4.9111 16.48586c0 2.7111 2.2029 4.917 4.9111 4.917 2.7073 0 4.9094-2.2059 4.9094-4.917 0-2.7119-2.2021-4.9178-4.9094-4.9178-2.7082 0-4.9111 2.2059-4.9111 4.9178zm-2.3085 0c0-3.9862 3.2371-7.2312 7.2196-7.2312 3.9807 0 7.2196 3.245 7.2196 7.2312 0 3.9871-3.2389 7.2304-7.2196 7.2304-3.9825 0-7.2196-3.2433-7.2196-7.2304z" fill="#00d8a0" fill-rule="evenodd"/></svg>

<svg width="44" height="44" viewBox="0 0 44 44" fill="none" xmlns="http://www.w3.org/2000/svg">
<path fill-rule="evenodd" clip-rule="evenodd" d="M21.853 3.63082C11.6734 3.63082 3.39505 11.9231 3.39505 22.1176C3.39505 32.3104 11.6734 40.6018 21.853 40.6018C32.031 40.6018 40.3119 32.3104 40.3119 22.1176C40.3119 11.9231 32.031 3.63082 21.853 3.63082ZM21.853 44C9.80346 44 -0.00012207 34.1829 -0.00012207 22.1176C-0.00012207 10.0497 9.80346 0.232666 21.853 0.232666C33.9018 0.232666 43.707 10.0497 43.707 22.1176C43.707 34.1829 33.9018 44 21.853 44ZM21.8539 10.5117C15.4531 10.5117 10.2657 15.7087 10.2657 22.1175C10.2657 28.5246 15.4531 33.7191 21.8539 33.7191C28.253 33.7191 33.4412 28.5246 33.4412 22.1175C33.4412 15.7087 28.253 10.5117 21.8539 10.5117ZM21.8539 5.63104L25.6792 9.40827L30.9375 8.3032L32.1154 13.5536L37.1372 15.4684L35.2952 20.5208L38.485 24.8523L34.206 28.1066L34.5516 33.4746L29.1952 33.8977L26.5875 38.6014L21.8539 36.0554L17.1202 38.6014L14.5126 33.8977L9.1562 33.4746L9.5018 28.1066L5.22361 24.8523L8.41261 20.5208L6.56968 15.4684L11.5906 13.5536L12.7702 8.3032L18.0278 9.40827L21.8539 5.63104ZM16.9428 22.1169C16.9428 24.828 19.1457 27.0339 21.8539 27.0339C24.5612 27.0339 26.7633 24.828 26.7633 22.1169C26.7633 19.405 24.5612 17.1991 21.8539 17.1991C19.1457 17.1991 16.9428 19.405 16.9428 22.1169ZM14.6343 22.1169C14.6343 18.1307 17.8714 14.8857 21.8539 14.8857C25.8346 14.8857 29.0735 18.1307 29.0735 22.1169C29.0735 26.104 25.8346 29.3473 21.8539 29.3473C17.8714 29.3473 14.6343 26.104 14.6343 22.1169Z" fill="#00D8A0"/>
</svg>
